X:1
T:James Gibb editions
T:Sancta Maria - Guerrero
T:#
%%score [ 1 2 3 4 ]
L:1/8
Q:1/4=96
M:2/2
K:Bb
V:1 treble nm="Soprano" snm="S"
V:2 treble nm="Alto" snm="A"
V:3 treble-8 nm="Tenor" snm="T"
V:4 bass nm="Bass" snm="B"
V:1
"^Francisco Guerrero\n(1528-99)""^Sancta Maria, succurre miseris" z8 | z4 d4- | d4 ^c4 | d4 f4 | %4
w: |San\-|* cta|Ma- ri-|
 =e4 z2 d2- | d2 (c4 BA | B2 G2 A4) | G2 B4 G2 | A8- | A8 | z4 z2 g2- | g2 f4 e2- | e2 d4 c2 | %13
w: a, suc\-|* cur\- * *||re mi- se-|ris,||suc\-|* cur- re|* mi- se-|
 d4 z4 | z4 z2 d2- | d2 c4 B2 | A2 G2 (A3 G | FD) G4 ^F2 | G4 z4 | z8 | z4 z2 d2- | d2 ^c2 d2 A2 | %22
w: ris,|suc\-|* cur- re|mi- se- ris, *|* * mi- se-|ris,||iu\-|* va pu- sil-|
 c2 B2 A2 A2- | A2 G2 A2 A2 | (AGAB A2) G2 | ^F2 A3 A A2 | (B6 AG | B2) c2 d4 | d3 d B2 e2- | %29
w: la- ni- mes, iu\-|* va pu- sil-|la\- * * * * ni-|mes, re- fo- ve|fle\- * *|* bi- les,|re- fo- ve fle\-|
 e2 c2 d4 | z2 d2 d2 d2 | c6 B2 | A4 z2 B2 | c2 B2 B4- | B2 G2 G4 | z2 d2 d2 d2 | (f3 e/d/ cA d2- | %37
w: * bi- les,|o- ra pro|po- pu-|lo, o-|ra pro po\-|* pu- lo,|o- ra pro|po\- * * * * *|
 dc A2 B2) c2 | d8 | z2 g4 f2 | d2 e2 (d4- | d2 c2) (BABc | d2 c4 =BA) | =B2 B4 B2 | c4 d4 | %45
w: * * * * pu-|lo,|in- ter-|ve- ni pro|* * cle\- * * *||ro, in- ter-|ce- de|
 G6 F2 | (F4 B4) | A4 z2 f2- | f2 (ed e2) (d2- | d2 c2) d2 d2- | d2 d2 (c2 B2) | A4 z2 d2- | %52
w: pro de-|vo\- *|to, in\-|* ter\- * * ce\-|* * de pro|* de- vo\- *|to fe\-|
 d2 f4 c2 | d2 (c3 B B2- | B2 A2 B2 A2- | AG G4 ^F2) | G16 ||"^Secunda pars" z8 | z4 G4- | %59
w: * mi- ne-|o se\- * *|||xu.||Sen\-|
 G2 B2 A2 (G2- | GABc d4) | c2 B2 (d3 c/B/ | A2 G2 c4 | A4 B2 G2- | G2 F2 A2 B2- | B2 G2 A4 | d8 | %67
w: * ti- ant o\-||mnes pec- ca\- * *|* to- res,|sen- ti- ant|* o- mnes pec\-|* ca- to-|res|
 z2 d4 B2 | c2 d3 cBA | G2) F2 f3 d | (=e2 f3 e d2- | d2 ^c2) d4- | d4 z4 | z2 f2 d2 =e2 | %74
w: sen- ti-|ant o\- * * *|* mnes pec- ca-|to\- * * *|* * res||tu- um iu-|
 (f=edc B2 AG | F2) G2 A2 G2 | B2 (A4 G2) | A4 z4 | z2 d2 d2 B2 | c2 d2 G4 | z2 B2 B2 G2 | %81
w: va\- * * * * * *|* men, tu- um|iu- va\- *|men|qui- cum- que|ce- le- brant,|qui- cum- que|
 A2 B2 c2 G2 | A2 (B3 A) (d2 | d2) ^c2 d4- | d4 z4 | d4 =e2 e2 | (f3 =e d2) c2 | d2 B2 A4 | G4 z4 | %89
w: ce- le- brant, qui-|cum- que * ce\-|* le- brant||tu- am com-|me\- * * mo-|ra- ti- o-|nem,|
 d4 =e2 e2 | (f3 =e d2) c2 | d2 B2 A4 | G2[Q:1/4=95] =B2[Q:1/4=93] c2[Q:1/4=92] c2 | %93
w: tu- am com-|me\- * * mo-|ra- ti- o-|nem, tu- am com-|
[Q:1/4=90] c2[Q:1/4=89] c2[Q:1/4=87] B2[Q:1/4=86] A2- |[Q:1/4=84] A2[Q:1/4=82] (G4[Q:1/4=80] ^F2) | %95
w: me- mo- ra- ti\-|* o\- *|
[Q:1/4=80] G16 |] %96
w: nem.|
V:2
 G8 | ^F4 G4 | (B4 A4) | D4 z2 A2- | A2 G4 ^F2 | E2 E2 D4 | z2 D4 C2 | (B,G,) (G2 F2 =ED) | %8
w: San-|cta Ma-|ri\- *|a, suc\-|* cur- re|mi- se- ris,|suc- cur-|re * mi\- * * *|
 =E4 D2 A,2 | D6 C2 | B,2 A,2 G,4 | D4 G4- | G2 F2 E2 E2 | D4 A4 | G3 F A2 B2 | (A3 G/F/ =E2) F2 | %16
w: se- ris, suc-|cur- re|mi- se- ris,|suc- cur\-|* re mi- se-|ris, suc-|cur- re mi- se-|ris, * * * suc-|
 _E2 D2 (F2 C2 | D2) E2 D4 | z2 B2 A2 B2- | B2 F2 A2 G2 | (FGAF G2 D2 | =E4) z2 F2 | =E2 F4 C2 | %23
w: cur- re mi\- *|* se- ris,|iu- va pu\-|* sil- la- ni-|mes, * * * * *|* iu-|va pu- sil-|
 =E2 D2 E2 F2- | F2 F2 F2 D2 | D4 z2 F2- | FF F2 G3 G | G4 A3 A | A2 (B3 AGF | G2) A2 B4 | %30
w: la- ni- mes, pu\-|* sil- la- ni-|mes. re\-|* fo- ve fle- bi-|les, re- fo-|ve fle\- * * *|* bi- les,|
 z2 B2 B2 B2 | (AGFE D2 G2- | G2) ^F2 G2 z G | G2 G2 (FEDC | B,2) E2 D4- | D4 B4 | A2 F2 A2 B2 | %37
w: o- ra pro|po\- * * * * *|* pu- lo, o-|ra pro po\- * * *|* pu- lo,|* in-|ter- ve- ni pro|
 (A3 GFD G2 | F2 G2 D4- | D2 C2) D4 | z2 G4 F2 | D2 E2 (D3 C | B,2) C2 D4 | z2 G4 G2 | G4 F4 | %45
w: cle\- * * * *||* * ro,|in- ter-|ve- ni pro *|* cle- ro,|in- ter-|ce- de|
 E6 D2 | (D3 =E F4- | F8) | G8 | z2 G2 B4 | F2 G2 (A2 GF | =E4) F4 | z2 F2 A4 | D2 =E2 F4 | %54
w: pro de-|vo\- * *||to|fe- mi-|ne- o se\- * *|* xu,|fe- mi-|ne- o se-|
 F2 F2 F2 E2 | D4 D4 | D16 || G6 =E2 | F2 (G3 F_ED | C2) B,2 C2 E2 | D2 (G,A, B,CD=E | F2 G4 F=E | %62
w: xu, fe- mi- ne-|o se-|xu.|Sen- ti-|ant o\- * * *|* mnes pec- ca-|to- res, * * * * *||
 F2 B2 A2 G2- | G2 F2 G2 B2 | (A3 GF=E F2- | F2) =E2 F4 | z2 D4 F2 | =E2 D3 EFG | A4) B2 G2 | %69
w: * sen- ti- ant|* o- mnes pec-|ca\- * * * *|* to- res,|sen- ti-|ant o\- * * *|* mnes pec-|
 B2 (A2 FGAF | G2 F2) A4- | A4 z2 B2 | G2 A2 (B4 | A2 F2 G4) | F4 z2 F2 | D2 =E2 (FEDC | D4) D4 | %77
w: ca- to\- * * * *|* * res|* tu-|um iu- va\-||men, tu-|um iu- va\- * * *|* men|
 z2 F2 F2 D2 | =E2 F2 G4 | z2 G2 G2 =E2 | F2 G2 G,4 | z2 G2 G2 =E2 | F2 (G3 F D2 | F2 =E2) D4 | %84
w: qui- cum- que|ce- le- brant,|qui- cum- que|ce- le- brant,|qui- cum- que|ce- le\- * *|* * brant|
 z2 D2 D2 =E2 | F2 D2 G2 G2 | (A3 G/A/ B2 AG | FD G4 ^F2 | G4) C4 | z2 G4 A2- | A2 A2 B2 A2- | %91
w: tu- am com-|me- mo- ra- ti-|o\- * * * * *||* nem,|tu- am|* com- me- mo\-|
 A2 G4 ^F2 | G4 G2 G2 | A2 A2 G2 =E2 | (F=EDC D4) | D16 |] %96
w: * ra- ti-|o- nem, com-|me- mo- ra- ti-|o\- * * * *|nem.|
V:3
 z8 | z8 | z8 | z8 | z8 | z8 | z8 | d8 | ^c4 d4 | f4 =e4 | z2 d4 c2 | (B2 AG) B2 c2 | d4 z2 g2- | %13
w: |||||||San-|cta Ma-|ri- a,|suc- cur-|re * * mi- se-|ris, suc\-|
 g2 f4 (e2- | e2 d2) f2 g2 | =e4 z2 d2 | c2 (B2 A4) | B2 c2 (A4 | G4) d4- | d4 c4 | d2 A2 c2 B2 | %21
w: * cur- re|* * mi- se-|ris. suc-|cur- re *|mi- se- ris,|* iu\-|* va|pu- sil- la- ni-|
 A4 z4 | z8 | z2 d2 ^c2 d2- | d2 A2 c2 B2 | A4 z2 d2- | dd d2 e4- | e2 e2 d2 f2- | ff f2 g4 | %29
w: mes,||iu- va pu\-|* sil- la- ni-|mes, re\-|* fo- ve fle\-|* bi- les, re\-|* fo- ve fle-|
 e4 f4 | z2 B2 G2 B2 | F4 G4 | d4 e4 | e2 e2 d2 B2 | (d2 c4 BA | BAGA BcdB | c4) z2 g2- | %37
w: bi- les,|o- ra pro|po- pu-|lo, o-|ra pro po- pu-|lo, * * *||* in\-|
 g2 f2 d2 e2 | (d3 c B2) A2 | (B2 AG A2) d2- | d2 c2 A4 | B2 c2 (G4- | G2 A2) G4 | z2 d4 d2 | %44
w: * ter- ve- ni|pro * * cle-|ro, * * * in\-|* ter- ve-|ni pro cle\-|* * ro,|in- ter-|
 G4 A2 B2- | B2 B2 (B4- | B4 d4) | c8 | z2 c4 B2 | e4 d4 | z2 d2 f2 d2- | d2 ^c2 d2 A2 | z2 d2 f4 | %53
w: ce- de pro|* de vo\-||to,|pro de-|vo- to|fe- mi- ne\-|* o se- xu,|fe- mi-|
 B2 c2 d4 | c2 c2 d2 c2 | (B2 AG) A4 | G16 || z8 | z8 | z8 | G6 B2 | A2 (G3 ABc | d2 e2 c2 c2 | %63
w: ne- o se-|xu, fe- mi- ne-|o * * se-|xu.||||Sen- ti-|ant o\- * * *|* mnes pec- ca-|
 d4 G4 | z4 z2 d2- | d2 B2 c2 (d2- | dcBA BA d2) | c2 f4 d2 | =e2 ^f2) g2 G2- | G2 (d3 c) A2 | %70
w: to- res,|sen\-|* ti- ant o\-||mnes pec- ca-|to\- * res, pec\-|* ca\- * to\-|
 (c2 d2 f4 | =e4) d4 | z2 f2 d2 =e2 | (f=edc B2 c2) | d4 z4 | z4 z2 B2 | G2 A2 B4 | A2 d2 d2 B2 | %78
w: |* res|tu- um iu-|va\- * * * * *|men,|tu-|um iu- va-|men qui- cum- que|
 c2 d2 G2 g2 | f2 d2 =e2 c2 | (dcBA B2) (c2- | cA) d2 (c3 B) | A2 G2 d4 | z4 G4 | B2 A2 B2 G2 | %85
w: ce- le- brant, qui-|cum- que ce- le-|brant, * * * * qui\-|* * cum- que *|ce- le- brant|tu-|am com- me- mo-|
 A2 =B2 c4 | F4 z4 | z4 z2 d2- | d2 =e2 e2 (f2- | f=e d4) c2 | (d3 c B2) F2 | (B3 c) d4 | %92
w: ra- ti- o-|nem,|tu\-|* am com- me\-|* * * mo-|ra\- * * ti-|o\- * nem,|
 z2 d2 =e2 e2 | (f3 =e d2) ^c2 | d2 B2 A4 | G16 |] %96
w: tu- am com-|me\- * * mo-|ra- ti- o-|nem.|
V:4
 z8 | z8 | z8 | z8 | z8 | z4 G,4- | G,4 ^F,4 | G,4 (B,4 | A,4 D,4- | D,4 A,4 | G,2 F,2 E,2 E,2 | %11
w: |||||San\-|* cta|Ma- ri\-|* a,|* suc-|cur- re mi- se-|
 D,4 z4 | z8 | z2 D4 C2- | C2 B,2 A,2 G,2 | A,4 z4 | z2 G,2 F,3 E, | D,2 C,2 D,4 | %18
w: ris,||suc- cur\-|* re mi- se-|ris,|suc- cur- re|mi- se- ris,|
 z2 G,2 ^F,2 G,2- | G,2 D,2 F,2 E,2 | D,4 z4 | z4 D4 | C2 D4 A,2 | C2 B,2 A,2 D,2 | D,2 F,4 G,2 | %25
w: iu- va pu\-|* sil- la- ni-|mes,|iu-|va pu- sil-|la- ni- mes, pu-|sil- la- ni-|
 D,8 | z8 | z4 z2 D2- | DD D2 E4 | C4 B,4- | B,4 z4 | z8 | z4 z2 E,2 | C,2 E,2 B,,4- | %34
w: mes,||re\-|* fo- ve fle-|bi- les,|||o-|ra pro po\-|
 B,,2 C,2 G,4 | z2 B,2 G,2 B,2 | F,6 G,2 | D4 z4 | z2 G,4 F,2 | D,2 E,2 D,3 C, | B,,2) C,2 D,4 | %41
w: * pu- lo,|o- ra pro|po- pu-|lo,|in- ter-|ve- ni pro *|* cle- ro,|
 z8 | z8 | G,6 G,2 | E,4 D,4 | E,6 B,,2 | (B,,8 | F,8) | C,4 z4 | z4 G,4 | B,4 F,2 G,2 | A,4 D,4- | %52
w: ||in- ter-|ce- de|pro de-|vo\-||to|fe-|mi- ne- o|se- xu,|
 D,4 z4 | z4 D,4 | F,4 B,,2 C,2 | D,8 | G,16 || z8 | z8 | z8 | z8 | z8 | z8 | z2 D4 B,2 | %64
w: |fe-|mi- ne- o|se-|xu.|||||||Sen- ti-|
 C2 (D3 CB,A, | G,4) F,2 D,2 | F,2 (G,3 F, D,2 | A,2 D,2 B,4 | A,2 D,2 G,4 | z2 D,4 F,2 | %70
w: ant o\- * * *|* mnes pec-|ca- to\- * *|* res, pec-|ca- to- res,|sen- ti-|
 =E,2 (D,3 E,F,G, | A,2) A,2 B,2 G,2- | G,F, D,2) G,4 | D,4 z4 | z2 B,2 G,2 A,2 | %75
w: ant o\- * * *|* mnes pec- ca\-|* * * to-|res|tu- um iu-|
 B,2 G,2 F,2 G,2- | G,2 ^F,2 G,4 | D,4 z4 | z2 B,2 B,2 G,2 | A,2 B,2 C4 | z2 G,2 G,2 =E,2 | %81
w: va- men, tu- um|* iu- va-|men|qui- cum- que|ce- le- brant,|qui- cum- que|
 F,2 G,2 C,4 | z4 G,4 | A,2 A,2 (B,3 A, | G,2 F,2 G,2 =E,2 | D,4 C,4 | z2 F,2 G,2 A,2 | %87
w: ce- le- brant|tu-|am com- me\- *|* mo- ra- ti-|o- nem,|tu- am com-|
 B,2 G,2 D4 | B,2 (C3 B,A,G, | F,2 G,2 =E,2 A,2) | D,4 z4 | z4 D,4 | E,2 G,2 C,2 C,2 | %93
w: me- mo- ra-|ti- o\- * * *||nem,|tu-|am com- me- mo-|
 F,4 G,2 A,2) | D,8 | G,16 |] %96
w: ra- ti\- *|o-|nem.|

